markup/sourceimages/icon14.svg

<svg xmlns="http://www.w3.org/2000/svg" width="24" height="24"><path fill-rule="evenodd" fill="#0D1B27" d="M23.412 14.1l-1.868.303a9.736 9.736 0 0 1-1.097 2.644l1.074 1.505c.2.279.168.662-.075.905l-1.988 1.989a.707.707 0 0 1-.906.075l-1.505-1.074a9.736 9.736 0 0 1-2.644 1.097l-.303 1.868a.704.704 0 0 1-.694.588h-2.812a.703.703 0 0 1-.694-.588l-.303-1.868a9.742 9.742 0 0 1-2.645-1.097l-1.504 1.074a.707.707 0 0 1-.906-.075l-1.988-1.989a.702.702 0 0 1-.075-.905l1.074-1.504a9.755 9.755 0 0 1-1.097-2.645L.588 14.1A.704.704 0 0 1 0 13.406v-2.813c0-.344.249-.637.588-.693l1.868-.303a9.742 9.742 0 0 1 1.097-2.645L2.479 5.448a.703.703 0 0 1 .075-.906l1.988-1.988a.7.7 0 0 1 .906-.075l1.504 1.074a9.776 9.776 0 0 1 2.645-1.098L9.9.588A.702.702 0 0 1 10.594 0h2.812c.344 0 .637.248.694.587l.303 1.868a9.739 9.739 0 0 1 2.644 1.098l1.505-1.074a.701.701 0 0 1 .906.075l1.988 1.988a.703.703 0 0 1 .075.906l-1.074 1.504a9.742 9.742 0 0 1 1.097 2.645l1.868.303a.702.702 0 0 1 .588.693v2.813a.704.704 0 0 1-.588.694zM12 4.265c-4.265 0-7.734 3.47-7.734 7.735 0 4.265 3.469 7.734 7.734 7.734 4.265 0 7.734-3.469 7.734-7.734 0-4.265-3.469-7.735-7.734-7.735zm-4.685 11.95a4.954 4.954 0 0 1 1.437-2.259c.774.944 1.935 1.559 3.248 1.559 1.313 0 2.474-.615 3.248-1.559a4.954 4.954 0 0 1 1.437 2.259c-1.159 1.287-2.821 2.113-4.685 2.113-1.865 0-3.526-.826-4.685-2.113zM12 14.109a2.815 2.815 0 0 1-2.813-2.812A2.816 2.816 0 0 1 12 8.484a2.815 2.815 0 0 1 2.812 2.813A2.815 2.815 0 0 1 12 14.109z"/></svg>

<svg 
 xmlns="http://www.w3.org/2000/svg"
 xmlns:xlink="http://www.w3.org/1999/xlink"
 width="24px" height="24px">
<path fill-rule="evenodd"  fill="rgb(13, 27, 39)"
 d="M23.412,14.100 L21.544,14.403 C21.310,15.336 20.942,16.221 20.447,17.047 L21.521,18.552 C21.721,18.831 21.689,19.214 21.446,19.457 L19.458,21.446 C19.213,21.688 18.831,21.719 18.552,21.521 L17.047,20.447 C16.221,20.942 15.336,21.310 14.403,21.544 L14.100,23.412 C14.043,23.751 13.750,24.000 13.406,24.000 L10.594,24.000 C10.250,24.000 9.956,23.751 9.900,23.412 L9.597,21.544 C8.664,21.310 7.778,20.942 6.952,20.447 L5.448,21.521 C5.168,21.719 4.785,21.688 4.542,21.446 L2.554,19.457 C2.311,19.214 2.279,18.831 2.479,18.552 L3.553,17.048 C3.058,16.221 2.690,15.336 2.456,14.403 L0.588,14.100 C0.249,14.043 -0.000,13.750 -0.000,13.406 L-0.000,10.593 C-0.000,10.249 0.249,9.956 0.588,9.900 L2.456,9.597 C2.690,8.664 3.058,7.778 3.553,6.952 L2.479,5.448 C2.279,5.168 2.311,4.785 2.554,4.542 L4.542,2.554 C4.785,2.310 5.168,2.278 5.448,2.479 L6.952,3.553 C7.778,3.058 8.664,2.690 9.597,2.455 L9.900,0.588 C9.956,0.248 10.250,-0.000 10.594,-0.000 L13.406,-0.000 C13.750,-0.000 14.043,0.248 14.100,0.587 L14.403,2.455 C15.336,2.690 16.221,3.057 17.047,3.553 L18.552,2.479 C18.831,2.278 19.213,2.310 19.458,2.554 L21.446,4.542 C21.689,4.785 21.721,5.168 21.521,5.448 L20.447,6.952 C20.942,7.778 21.310,8.664 21.544,9.597 L23.412,9.900 C23.751,9.956 24.000,10.249 24.000,10.593 L24.000,13.406 C24.000,13.750 23.751,14.043 23.412,14.100 ZM12.000,4.265 C7.735,4.265 4.266,7.735 4.266,12.000 C4.266,16.265 7.735,19.734 12.000,19.734 C16.265,19.734 19.734,16.265 19.734,12.000 C19.734,7.735 16.265,4.265 12.000,4.265 ZM7.315,16.215 C7.586,15.336 8.078,14.553 8.752,13.956 C9.526,14.900 10.687,15.515 12.000,15.515 C13.313,15.515 14.474,14.900 15.248,13.956 C15.922,14.553 16.414,15.336 16.685,16.215 C15.526,17.502 13.864,18.328 12.000,18.328 C10.135,18.328 8.474,17.502 7.315,16.215 ZM12.000,14.109 C10.449,14.109 9.187,12.848 9.187,11.297 C9.187,9.746 10.449,8.484 12.000,8.484 C13.551,8.484 14.812,9.746 14.812,11.297 C14.812,12.848 13.551,14.109 12.000,14.109 Z"/>
</svg>
